X: 2
T: Jerry's Beaver Hat
R: jig
M: 6/8
L: 1/8
K: Dmaj
|:DFA dAd|fed BAF|AFA dAF|EDE GFE|DFA dAd|fed BAF|AFA dAF|DED D3:||:dfa afd|gfg fef|dfa afd|ace eca|dfa afd|gfg fef|B/c/dB AFA|DED D3:|


Tune 319	Setting 27791

